icons/chevron/vertical.svg

<svg width="32" height="32" viewBox="0 0 32 32" fill="none" xmlns="http://www.w3.org/2000/svg">
<path fill-rule="evenodd" clip-rule="evenodd" d="M16.7071 5.29291L16 4.5858L15.2929 5.29291L8.62622 11.9596L10.0404 13.3738L16 7.41423L21.9596 13.3738L23.3738 11.9596L16.7071 5.29291ZM10.0404 18.6262L16 24.5858L21.9596 18.6262L23.3738 20.0405L16.7071 26.7071L16 27.4142L15.2929 26.7071L8.62622 20.0405L10.0404 18.6262Z" fill="black"/>
</svg>

<svg viewBox="0 0 32 32" xmlns="http://www.w3.org/2000/svg"><path fill-rule="evenodd" d="M16.707 5.293L16 4.586l-.707.707-6.667 6.667 1.414 1.414L16 7.414l5.96 5.96 1.414-1.414-6.667-6.667zM10.04 18.626l5.96 5.96 5.96-5.96 1.414 1.415-6.667 6.666-.707.707-.707-.707-6.667-6.666 1.414-1.415z"/></svg>
